X:151
T:Paddy Clancy's
R:jig
D:Bothy Band: 1975
Z:id:hn-jig-151
M:6/8
K:D
afd edB|d2B AFA|dcd ede|fdf efg|afd edB|d2B AFA|dcd ede|1 fdd d2f:|2 fdc d2e||
~f3 ~g3|fgf fed|fef gfg|afd e2d|~f3 ~g3|fgf fed|~f3 ede|1 fdc d2e:|2 fdd d2f||

